X: 155
T: Butchers Hornpipe
%%VWML:Wrights-3753-p78-0
F: http://www.vwml.org/record/Wrights/3753/p78
%R: triple hornpipe
B: Daniel Wright "Wright's Compleat Collection of Celebrated Country Dances" 1740 p.78
S: http://library.efdss.org/cgi-bin/dancebooks.cgi
Z: 2014 John Chambers <jc:trillian.mit.edu>
N: Repeats modified to match the "Each strain twice" instruction.
N: Bar 10 has an extra count; fixed to agree with Walsh's version, by omitting one of the B notes. N: Should the 2nd "half round" be with the 3d Cu.?
M: 3/2
L: 1/8
K: G
%-------------------------
|:\
GFGA B2c2 d4 | edcB cBAG F2D2 |\
E2d2 E2c2 D2B2 | D2EF G2D2 B,2G,2 :|\
|:\
g4 Bc d2 g2G2 | cde2 A2a2 f4 |
e2ce d2Bd c2Ac | D2G2 GABc A2G2 :|\
|:\
G3A GABc d2G2 | F2 A4 B2 c2E2 |\
E3F EFEF G2C2 | A,2D2 DEDC B,2 G,2 :|
%-------------------------
%%center Each strain twice.
%%begintext align
%% The 1st and 2d Cu. take hands and go half
%% round, the 1st Cu. go the half round again, with the
%% 2d Cu. (the 2d Cu. at the same time turn one
%% another into their own places) .| then 1st Cu.
%% lead up to the top, then sett and cast off. :|
%% then 1st Cu. lead down the Middle thro' the
%% 3d Cu. and lead up again thro' the 2d, and cast
%% off into the 2d Cu. place .:|
%%endtext %------------------------- %%sep 2 4 300
T: the Merry Bacchanal
T: Longways &c.
%R: jig
B: Daniel Wright "Wright's Compleat Collection of Celebrated Country Dances" 1740 p.78
S: http://library.efdss.org/cgi-bin/dancebooks.cgi
Z: 2014 John Chambers <jc:trillian.mit.edu>
N: Repeats modified to match the "Each strain twice" instruction. N: Transcribed one "chang" as "change".
M: 6/4
L: 1/4
K: C
%-------------------------
G |\
c>de dcB | c3 G3 | ABc GFE | D3- D2B |\
c>BA dcB | A3 D2D | E>^FG DG^F | G3- G2 :|
|: B |\
c>BA d>ef | ^G3 E2E | FED EA^G | A3- A2c |\
B>AG cde | d>cd G2f | edc Adc | B3- B2f |\
edc GcB | c3- c2 :|
%-------------------------
%%center Each strain twice.
%%begintext align
%% The 1st 4 Cu. dance to each other, then single
%% and change places .| then dance as before, turn
%% single and change places :| the 1st Cu. go
%% inside and outside below the 4th Cu. and turn
%% single .| take all hands, turn half round and
%% back again .| the 1st Cu. lead up to the top
%% and turn single and half figure.
%%endtext
%-------------------------
%%sep 2 4 300
